build/svg/cmd/32/diaeffect.svg

<?xml version="1.0" encoding="UTF-8" standalone="no"?>
<svg
   xmlns:dc="http://purl.org/dc/elements/1.1/"
   xmlns:cc="http://creativecommons.org/ns#"
   xmlns:rdf="http://www.w3.org/1999/02/22-rdf-syntax-ns#"
   xmlns:svg="http://www.w3.org/2000/svg"
   xmlns="http://www.w3.org/2000/svg"
   xmlns:sodipodi="http://sodipodi.sourceforge.net/DTD/sodipodi-0.dtd"
   xmlns:inkscape="http://www.inkscape.org/namespaces/inkscape"
   viewBox="0 0 32 32"
   version="1.1"
   id="svg4"
   sodipodi:docname="diaeffect.svg"
   inkscape:export-filename="/home/jupiter007/Libreoffice yaru theme fullcolor/build/cmd/32/diaeffect.png"
   inkscape:export-xdpi="96"
   inkscape:export-ydpi="96"
   inkscape:version="0.92.5 (2060ec1f9f, 2020-04-08)">
  <metadata
     id="metadata10">
    <rdf:RDF>
      <cc:Work
         rdf:about="">
        <dc:format>image/svg+xml</dc:format>
        <dc:type
           rdf:resource="http://purl.org/dc/dcmitype/StillImage" />
      </cc:Work>
    </rdf:RDF>
  </metadata>
  <defs
     id="defs8" />
  <sodipodi:namedview
     pagecolor="#ffffff"
     bordercolor="#666666"
     borderopacity="1"
     objecttolerance="10"
     gridtolerance="10"
     guidetolerance="10"
     inkscape:pageopacity="0"
     inkscape:pageshadow="2"
     inkscape:window-width="1920"
     inkscape:window-height="1011"
     id="namedview6"
     showgrid="true"
     inkscape:zoom="20.85965"
     inkscape:cx="5.4347556"
     inkscape:cy="23.07159"
     inkscape:window-x="0"
     inkscape:window-y="32"
     inkscape:window-maximized="1"
     inkscape:current-layer="svg4">
    <inkscape:grid
       type="xygrid"
       id="grid837" />
  </sodipodi:namedview>
  <path
     inkscape:connector-curvature="0"
     id="path826"
     d="m 3,8 v 16 c 0,2.216 1.784,4 4,4 h 18 c 2.216,0 4,-1.784 4,-4 V 8 Z"
     style="opacity:0.6;fill:#000000;fill-opacity:1;fill-rule:evenodd;stroke:#000000;stroke-width:2;stroke-linecap:butt;stroke-linejoin:round;stroke-miterlimit:4;stroke-dasharray:none;stroke-opacity:1" />
  <rect
     style="opacity:1;fill:#6d6d6d;fill-opacity:1;fill-rule:evenodd;stroke:none;stroke-width:2;stroke-linecap:butt;stroke-linejoin:round;stroke-miterlimit:4;stroke-dasharray:none;stroke-opacity:1"
     id="rect819"
     width="32"
     height="4"
     x="8.0000001e-07"
     y="4" />
  <path
     inkscape:connector-curvature="0"
     style="opacity:1;fill:#ffffff;fill-opacity:1;fill-rule:evenodd;stroke:none;stroke-width:2;stroke-linecap:butt;stroke-linejoin:round;stroke-miterlimit:4;stroke-dasharray:none;stroke-opacity:1"
     d="m 3,8 v 16 c 0,2.216 1.784,4 4,4 h 18 c 2.216,0 4,-1.784 4,-4 V 8 Z"
     id="rect821" />
  <path
     style="opacity:1;fill:#46a926;fill-opacity:1;fill-rule:evenodd;stroke:none;stroke-width:2;stroke-linecap:butt;stroke-linejoin:round;stroke-miterlimit:4;stroke-dasharray:none;stroke-opacity:1"
     id="path830"
     sodipodi:type="arc"
     sodipodi:cx="21"
     sodipodi:cy="18"
     sodipodi:rx="6"
     sodipodi:ry="6"
     sodipodi:start="0"
     sodipodi:end="4.712389"
     d="M 27,18 A 6,6 0 0 1 23.296101,23.543277 6,6 0 0 1 16.757359,22.242641 6,6 0 0 1 15.456723,15.703899 6,6 0 0 1 21,12 l 0,6 z" />
  <path
     d="m 12,-21 a 6,6 0 0 1 6,-6 l 0,6 z"
     sodipodi:end="4.712389"
     sodipodi:start="3.1415927"
     sodipodi:ry="6"
     sodipodi:rx="6"
     sodipodi:cy="-21"
     sodipodi:cx="18"
     sodipodi:type="arc"
     id="path832"
     style="opacity:1;fill:#c7162b;fill-opacity:1;fill-rule:evenodd;stroke:none;stroke-width:2;stroke-linecap:butt;stroke-linejoin:round;stroke-miterlimit:4;stroke-dasharray:none;stroke-opacity:1"
     transform="rotate(90)" />
  <rect
     style="opacity:1;fill:#1a7fd4;fill-opacity:1;fill-rule:evenodd;stroke:none;stroke-width:4;stroke-linecap:butt;stroke-linejoin:round;stroke-miterlimit:4;stroke-dasharray:none;stroke-opacity:1"
     id="rect830"
     width="6"
     height="2"
     x="6.000001"
     y="13" />
  <rect
     style="opacity:1;fill:#c7162b;fill-opacity:1;fill-rule:evenodd;stroke:none;stroke-width:3.99999976;stroke-linecap:butt;stroke-linejoin:round;stroke-miterlimit:4;stroke-dasharray:none;stroke-opacity:1"
     id="rect832"
     width="6"
     height="2"
     x="6.000001"
     y="17" />
  <rect
     style="opacity:1;fill:#46a926;fill-opacity:1;fill-rule:evenodd;stroke:none;stroke-width:3.99999976;stroke-linecap:butt;stroke-linejoin:round;stroke-miterlimit:4;stroke-dasharray:none;stroke-opacity:1"
     id="rect834"
     width="6"
     height="2"
     x="6.000001"
     y="21" />
  <path
     inkscape:connector-curvature="0"
     d="M 13.642376,0.99987213 13.510093,4.3031792 11.382219,5.4181398 10.717022,5.0401871 10.694342,3.0748328 9.2959175,4.3598721 7.4174925,3.7740454 l 0.793701,1.7234645 -1.141418,1.6062992 1.889764,-0.2192126 1.1716525,1.5874015 0.377953,-1.8670865 0.982677,-0.3288189 2.07874,0.7710236 0.578268,3.3864568 2.052283,-2.592756 3.401575,0.4988976 -1.83685,-2.7590551 1.523149,-3.0727559 -3.182362,0.888189 z M 6.2836375,6.8203445 5.1989125,7.8219193 3.7400145,7.3570374 4.3560775,8.7025492 3.4716685,9.9497933 4.9305665,9.7797146 5.8376525,11.008061 6.1286765,9.5642815 7.5800145,9.0729429 6.2949755,8.3548327 Z m 4.9511795,1.1905512 -1.5798415,1.4513385 -2.135433,-0.6689763 0.907087,1.9540161 -1.28504,1.814173 2.124095,-0.245669 1.3303925,1.787716 0.415748,-2.105197 2.116535,-0.710551 -1.870866,-1.050709 z m -8.2960618,2.1165353 -0.3968504,1.489134 -1.54204724,0.415748 1.29259844,0.839055 -0.075591,1.594961 1.190551,-0.975118 1.496693,0.574488 -0.555591,-1.436221 1.009134,-1.247244 -1.542047,0.08315 z"
     id="path882"
     style="opacity:0.6;fill:#000000;fill-opacity:1;stroke:#000000;stroke-width:2;stroke-linejoin:round" />
  <path
     inkscape:connector-curvature="0"
     style="fill:#fa9381;fill-opacity:1;stroke-width:3.77952743"
     id="path39"
     d="M 13.642376,0.99987213 13.510093,4.3031792 11.382219,5.4181398 10.717022,5.0401871 10.694342,3.0748328 9.2959175,4.3598721 7.4174925,3.7740454 l 0.793701,1.7234645 -1.141418,1.6062992 1.889764,-0.2192126 1.1716525,1.5874015 0.377953,-1.8670865 0.982677,-0.3288189 2.07874,0.7710236 0.578268,3.3864568 2.052283,-2.592756 3.401575,0.4988976 -1.83685,-2.7590551 1.523149,-3.0727559 -3.182362,0.888189 z M 6.2836375,6.8203445 5.1989125,7.8219193 3.7400145,7.3570374 4.3560775,8.7025492 3.4716685,9.9497933 4.9305665,9.7797146 5.8376525,11.008061 6.1286765,9.5642815 7.5800145,9.0729429 6.2949755,8.3548327 Z m 4.9511795,1.1905512 -1.5798415,1.4513385 -2.135433,-0.6689763 0.907087,1.9540161 -1.28504,1.814173 2.124095,-0.245669 1.3303925,1.787716 0.415748,-2.105197 2.116535,-0.710551 -1.870866,-1.050709 z m -8.2960618,2.1165353 -0.3968504,1.489134 -1.54204724,0.415748 1.29259844,0.839055 -0.075591,1.594961 1.190551,-0.975118 1.496693,0.574488 -0.555591,-1.436221 1.009134,-1.247244 -1.542047,0.08315 z" />
</svg>

<svg xmlns="http://www.w3.org/2000/svg" viewBox="0 0 32 32"><path d="M3 8v16c0 2.216 1.784 4 4 4h18c2.216 0 4-1.784 4-4V8z" opacity=".6" fill-rule="evenodd" stroke="#000" stroke-width="2" stroke-linejoin="round"/><path fill="#6d6d6d" fill-rule="evenodd" d="M0 4h32v4H0z"/><path d="M3 8v16c0 2.216 1.784 4 4 4h18c2.216 0 4-1.784 4-4V8z" fill="#fff" fill-rule="evenodd"/><path d="M27 18a6 6 0 01-3.704 5.543 6 6 0 01-6.539-1.3 6 6 0 01-1.3-6.54A6 6 0 0121 12v6z" fill="#46a926" fill-rule="evenodd"/><path d="M21 12a6 6 0 016 6h-6z" fill="#c7162b" fill-rule="evenodd"/><path fill="#1a7fd4" fill-rule="evenodd" d="M6 13h6v2H6z"/><path fill="#c7162b" fill-rule="evenodd" d="M6 17h6v2H6z"/><path fill="#46a926" fill-rule="evenodd" d="M6 21h6v2H6z"/><path d="M13.642 1l-.132 3.303-2.128 1.115-.665-.378-.023-1.965L9.296 4.36l-1.879-.586.794 1.724L7.07 7.104l1.89-.22 1.171 1.588.378-1.867.983-.329 2.079.771.578 3.387L16.2 7.84l3.402.499-1.837-2.76 1.523-3.072-3.182.888zM6.284 6.82L5.199 7.822 3.74 7.357l.616 1.346-.884 1.247 1.459-.17.907 1.228.29-1.444 1.452-.491-1.285-.718zm4.95 1.19L9.656 9.463 7.52 8.793l.907 1.954-1.285 1.814 2.124-.245 1.33 1.787.416-2.105 2.116-.71-1.87-1.051zM2.94 10.128l-.397 1.49L1 12.032l1.292.84-.075 1.594 1.19-.975 1.497.575-.555-1.437 1.009-1.247-1.542.083z" opacity=".6" stroke="#000" stroke-width="2" stroke-linejoin="round"/><path d="M13.642 1l-.132 3.303-2.128 1.115-.665-.378-.023-1.965L9.296 4.36l-1.879-.586.794 1.724L7.07 7.104l1.89-.22 1.171 1.588.378-1.867.983-.329 2.079.771.578 3.387L16.2 7.84l3.402.499-1.837-2.76 1.523-3.072-3.182.888zM6.284 6.82L5.199 7.822 3.74 7.357l.616 1.346-.884 1.247 1.459-.17.907 1.228.29-1.444 1.452-.491-1.285-.718zm4.95 1.19L9.656 9.463 7.52 8.793l.907 1.954-1.285 1.814 2.124-.245 1.33 1.787.416-2.105 2.116-.71-1.87-1.051zM2.94 10.128l-.397 1.49L1 12.032l1.292.84-.075 1.594 1.19-.975 1.497.575-.555-1.437 1.009-1.247-1.542.083z" fill="#fa9381"/></svg>
